X:1
T:No Night There
T:No Night There
T:Hart Pease Danks
T:John Ralston Clements, 1899
T:Public Domain Courtesy of the Cyber Hymnal™
C:Hart Pease Danks
Z:Public Domain
Z:Courtesy of the Cyber Hymnal™
%%score ( 1 2 ) ( 3 4 )
L:1/8
Q:1/4=95
M:3/4
K:Eb
V:1 treble 
V:2 treble 
V:3 bass 
V:4 bass 
V:1
 E[EF] | [EG]3 [EG] [DA][DF] | [EB]4 E[EF] | [EG] [B,E]3 [DF]2 | E4 E[EF] | [EG]3 [GB] [^Fd][Fc] | %6
w: 1.~In the|land of fade- less|day, Lies “the|ci- ty four-|square,” It shall|nev- er pass a-|
w: 2.~All the|gates of pearl are|made, In “the|ci- ty four-|square,” All the|streets with gold are|
w: 3.~All the|gates shall nev- er|close, To “the|c- ity four-|square,” There life’s|crys- tal riv- er|
w: 4.~There they|need no sun- shine|bright, In “that|ci- ty four-|square,” For the|Lamb is all the|
 [GB]4 E[EF] | [EG][B,E] [DF]4 | [B,E]4 ||"^Refrain" BB | B3 G (cB) | A4 AA | A3 (z F)BA | %13
w: way, And there|is “no night|there.”|||||
w: laid, And there|is “no night|there.”|God shall|“wipe a- way *|all tears” There’s|no * death, no|
w: flows, And there|is “no night|there.”|||||
w: light, And there|is “no night|there.”|||||
 G4 [GB][GB] | e3 (z d)cB | B2 [FA]2 [CG][CF] | E3 (z E) F2 | [B,E]4 x2 |] x4 |] %19
w: ||||||
w: pain, nor fears;|And * they count|not time by years,|* * For|there||
w: ||||||
w: ||||||
V:2
 E x | x6 | x4 E x | x6 | E4 E x | x6 | x4 E x | x6 | x4 || BB | EG (GE) C2 | (CC C2) AA | %12
 (DD) D2 (GF) x | (EE) E2 x2 | (GG) G2 G2 x | GG x4 | (B,B,) B,2 D2 x | x6 |] x4 |] %19
V:3
 [E,G,][E,A,] | [E,B,]3 [E,B,] [F,B,][A,B,] | [G,B,]4 [C,=A,][_C,A,] | [B,,B,] [B,,G,]3 [B,,A,]2 | %4
 [E,G,]4 [E,G,][E,A,] | [E,B,]3 [E,B,] [E,=A,][E,A,] | [E,B,]4 [C,=A,][_C,A,] | %7
 [B,,B,][B,,F,] [B,,A,]4 | [E,G,]4 || z2 | [E,G,][E,B,] (EB,) [=E,G,]2 | [F,A,][F,A,] [F,A,]2 z2 | %12
 ([B,,F,][B,,F,]) (F,B,) [B,,B,]2 x | [E,B,][E,B,] [E,B,]2 [E,B,][E,B,] | ([E,B,][E,B,]) x5 | %15
 (B,=B,) [_E,C][=E,_D] x2 | [F,C][F,C] [F,C]2 [A,,B,][A,,A,] x | [B,,G,][B,,G,] (G,2 A,2) |] %18
 [E,G,]4 |] %19
V:4
 x2 | x6 | x6 | x6 | x6 | x6 | x6 | x6 | x4 || x2 | x2 =E,2 x2 | x6 | x2 B,,2 x3 | x6 | x7 | %15
 =E,2 x4 | x7 | x2 B,,4 |] x4 |] %19

